build/category/ReceiptOutline.svg

<svg xmlns="http://www.w3.org/2000/svg" fill="none" viewBox="0 0 24 24" focusable="false"><path d="M0 0H24V24H0z"/><path fill="#74767B" fill-rule="evenodd" d="M5.00893 5.59989L5 19.3936C5 20.6536 6.39034 21.4187 7.45607 20.7453L9.06373 19.7294C9.27229 19.5976 9.54025 19.607 9.73916 19.7529L11.0177 20.6909C11.5814 21.1045 12.3486 21.1045 12.9123 20.6909L14.2005 19.7458C14.3979 19.601 14.6634 19.5906 14.8715 19.7196L16.5467 20.7581C17.6129 21.4191 18.9911 20.6529 18.9911 19.3991L19 5.59989C19 4.16462 17.8355 3.0011 16.3991 3.0011L7.60986 3.0011C6.1734 3.0011 5.00893 4.16462 5.00893 5.59989ZM17.7 5.59989L17.6911 19.3983C17.6911 19.6312 17.4335 19.7783 17.2316 19.6532L15.5565 18.6147C14.8976 18.2062 14.0565 18.2391 13.4315 18.6977L12.1433 19.6428C12.0373 19.7205 11.8927 19.7205 11.7867 19.6428L10.5082 18.7047C9.87828 18.2426 9.02973 18.2131 8.3693 18.6304L6.76164 19.6463C6.55998 19.7737 6.30021 19.6278 6.3 19.3939L6.30893 5.60073C6.30893 4.88444 6.89036 4.3011 7.60986 4.3011L16.3991 4.3011C17.1186 4.3011 17.7 4.8836 17.7 5.59989ZM8 7.64858C8 7.28976 8.29112 6.99888 8.65023 6.99888L15.3527 6.99888C15.7118 6.99888 16.0029 7.28976 16.0029 7.64858C16.0029 8.00739 15.7118 8.29827 15.3527 8.29827L8.65023 8.29827C8.29112 8.29827 8 8.00739 8 7.64858ZM8.65023 9.99748C8.29112 9.99748 8 10.2884 8 10.6472C8 11.006 8.29112 11.2969 8.65023 11.2969L15.3526 11.2969C15.7118 11.2969 16.0029 11.006 16.0029 10.6472C16.0029 10.2884 15.7118 9.99748 15.3526 9.99748L8.65023 9.99748ZM8 13.6458C8 13.287 8.29112 12.9961 8.65023 12.9961L11.8514 12.9961C12.2105 12.9961 12.5016 13.287 12.5016 13.6458C12.5016 14.0046 12.2105 14.2955 11.8514 14.2955L8.65023 14.2955C8.29112 14.2955 8 14.0046 8 13.6458Z"/></svg>

<svg xmlns="http://www.w3.org/2000/svg" fill="none" viewBox="0 0 24 24" focusable="false"><path fill="#74767B" fill-rule="evenodd" d="M5 5.59v13.8c0 1.26 1.39 2.02 2.45 1.35l1.61-1.02c.21-.13.48-.12.67.03l1.28.94c.57.41 1.33.41 1.9 0l1.29-.95c.19-.14.46-.15.67-.03l1.67 1.04c1.07.66 2.45-.1 2.45-1.36L19 5.59C19 4.16 17.83 3 16.39 3H7.6A2.6 2.6 0 0 0 5 5.59m12.7 0-.01 13.8c0 .24-.26.38-.46.26l-1.68-1.04c-.66-.41-1.5-.38-2.12.08l-1.29.95a.3.3 0 0 1-.36 0l-1.28-.94a1.9 1.9 0 0 0-2.14-.07l-1.6 1.01c-.2.13-.46-.02-.47-.25L6.3 5.6c0-.72.59-1.3 1.3-1.3h8.79c.72 0 1.31.58 1.31 1.29M8 7.64c0-.36.29-.65.65-.65h6.7c.36 0 .65.29.65.65s-.29.65-.65.65h-6.7C8.29 8.29 8 8 8 7.64m.65 2.35c-.36 0-.65.29-.65.65s.29.65.65.65h6.7c.36 0 .65-.29.65-.65s-.29-.65-.65-.65zM8 13.64c0-.36.29-.65.65-.65h3.2c.36 0 .65.29.65.65s-.29.65-.65.65h-3.2c-.36 0-.65-.29-.65-.65"/></svg>
